archdroid-icon-theme/Archdroid-Shamrock/actions/scalable/zoom-fit-best.svg

<?xml version="1.0" encoding="UTF-8" standalone="no"?>
<svg
   xmlns:dc="http://purl.org/dc/elements/1.1/"
   xmlns:cc="http://creativecommons.org/ns#"
   xmlns:rdf="http://www.w3.org/1999/02/22-rdf-syntax-ns#"
   xmlns:svg="http://www.w3.org/2000/svg"
   xmlns="http://www.w3.org/2000/svg"
   xmlns:sodipodi="http://sodipodi.sourceforge.net/DTD/sodipodi-0.dtd"
   xmlns:inkscape="http://www.inkscape.org/namespaces/inkscape"
   fill="#00E676"
   width="48"
   height="48"
   viewBox="0 0 48 48"
   id="svg2"
   version="1.1"
   inkscape:version="0.91 r13725"
   sodipodi:docname="zoom-fit-best.svg">
  <metadata
     id="metadata10">
    <rdf:RDF>
      <cc:Work
         rdf:about="">
        <dc:format>image/svg+xml</dc:format>
        <dc:type
           rdf:resource="http://purl.org/dc/dcmitype/StillImage" />
      </cc:Work>
    </rdf:RDF>
  </metadata>
  <defs
     id="defs8" />
  <sodipodi:namedview
     pagecolor="#ffffff"
     bordercolor="#666666"
     borderopacity="1"
     objecttolerance="10"
     gridtolerance="10"
     guidetolerance="10"
     inkscape:pageopacity="0"
     inkscape:pageshadow="2"
     inkscape:window-width="1366"
     inkscape:window-height="713"
     id="namedview6"
     showgrid="false"
     inkscape:snap-bbox="true"
     inkscape:bbox-nodes="true"
     inkscape:zoom="10.73600260416667"
     inkscape:cx="24"
     inkscape:cy="23.99999999999999"
     inkscape:window-x="0"
     inkscape:window-y="30"
     inkscape:window-maximized="1"
     inkscape:current-layer="svg2" />
  <path
     d="M 10 6 C 7.79 6 6.000000000000001 7.790000000000001 6 10 L 6 38 C 6 40.21 7.790000000000001 42 10 42 L 38 42 C 40.21 42 42 40.21 42 38 L 42 10 C 42 7.79 40.21 6.000000000000001 38 6 L 10 6 z M 14 14 L 21.142578125 14 L 21.142578125 16.857421875 L 16.857421875 16.857421875 L 16.857421875 21.142578125 L 14 21.142578125 L 14 14 z M 26.857421875 14 L 34 14 L 34 21.142578125 L 31.142578125 21.142578125 L 31.142578125 16.857421875 L 26.857421875 16.857421875 L 26.857421875 14 z M 14 26.857421875 L 16.857421875 26.857421875 L 16.857421875 31.142578125 L 21.142578125 31.142578125 L 21.142578125 34 L 14 34 L 14 26.857421875 z M 31.142578125 26.857421875 L 34 26.857421875 L 34 34 L 26.857421875 34 L 26.857421875 31.142578125 L 31.142578125 31.142578125 L 31.142578125 26.857421875 z "
     id="path4153" />
</svg>

<svg xmlns="http://www.w3.org/2000/svg" fill="#00E676" viewBox="0 0 48 48"><path d="m10 6c-2.21 0-4 1.79-4 4v28c0 2.21 1.79 4 4 4h28c2.21 0 4-1.79 4-4v-28c0-2.21-1.79-4-4-4h-28m4 8h7.143v2.857h-4.285v4.285h-2.857v-7.143m12.857 0h7.143v7.143h-2.857v-4.285h-4.285v-2.857m-12.857 12.857h2.857v4.285h4.285v2.857h-7.143v-7.143m17.14 0h2.857v7.143h-7.143v-2.857h4.285v-4.285"/></svg>
